X:1
T:Angus Robichaud's Reel
S:Bernie Waugh
R:Reel
M:4/4
L:1/8
K:D
|:AG|\
"D"FD2D DFAd|"G"B G2GG2ed|"A"cA2A Acea|"D"fdAd fdAG|
"D"FD2D DFAd|"G"BG2GG2ed|"A"cA2A Acea|"D"fd2dd2:|
|:Bd|\
"G"g2gf "Em"(3gag fg|"D"abaf defd|"A"Acef (3gfe ce|"Bm"defg "D7"a2Bd|
"G"g2gf "Em"(3gag fg|"D"abaf defd|"A"Acef (3gfe ce|"D"d2f2d2:|

